svgs/thin/square-plus.svg

<svg xmlns="http://www.w3.org/2000/svg" viewBox="0 0 448 512"><!--! Font Awesome Pro 6.5.1 by @fontawesome - https://fontawesome.com License - https://fontawesome.com/license (Commercial License) Copyright 2023 Fonticons, Inc. --><path d="M64 48C37.5 48 16 69.5 16 96V416c0 26.5 21.5 48 48 48H384c26.5 0 48-21.5 48-48V96c0-26.5-21.5-48-48-48H64zM0 96C0 60.7 28.7 32 64 32H384c35.3 0 64 28.7 64 64V416c0 35.3-28.7 64-64 64H64c-35.3 0-64-28.7-64-64V96zM216 352V264H128c-4.4 0-8-3.6-8-8s3.6-8 8-8h88V160c0-4.4 3.6-8 8-8s8 3.6 8 8v88h88c4.4 0 8 3.6 8 8s-3.6 8-8 8H232v88c0 4.4-3.6 8-8 8s-8-3.6-8-8z"/></svg>

<svg xmlns="http://www.w3.org/2000/svg" viewBox="0 0 448 512"><!--! Font Awesome Pro 6.1.1 by @fontawesome - https://fontawesome.com License - https://fontawesome.com/license (Commercial License) Copyright 2022 Fonticons, Inc. --><path d="M216 352V264H128C123.6 264 120 260.4 120 256C120 251.6 123.6 248 128 248H216V160C216 155.6 219.6 152 224 152C228.4 152 232 155.6 232 160V248H320C324.4 248 328 251.6 328 256C328 260.4 324.4 264 320 264H232V352C232 356.4 228.4 360 224 360C219.6 360 216 356.4 216 352zM0 96C0 60.65 28.65 32 64 32H384C419.3 32 448 60.65 448 96V416C448 451.3 419.3 480 384 480H64C28.65 480 0 451.3 0 416V96zM16 96V416C16 442.5 37.49 464 64 464H384C410.5 464 432 442.5 432 416V96C432 69.49 410.5 48 384 48H64C37.49 48 16 69.49 16 96z"/></svg>
